X: 132223
T: Miller of Drone
S: Colclough Collection
L: 1/8
M: 2/4
R: hornpipe
Q: 1/4=75
K: G
B/A/ |GEE>G |DB,B,>D |G>EE>F |G>AB>A |
GEE>G |DB,B,>D |G>AB>A |G2 G :|
B/c/ |d>BB>g |dBB>g |d3e |
d>BB>g |d<BB<G |cA c/B/A/G/ |E3 B/c/ |
d>BB>g |dBB>g |d2 (3def |
(3gfe (3def | (3gfe (3dcB |c>AB>G |1 E3 :|
[2 E2 (3cBA ||
